!!!!SEGMENT: pl-wnifc--6817-n--001-003_katski-antoni--grande-fantaisie-sur-l-opera-de-verdi-le-trovatore-op-157-allegro-di-bravura.krn
!!!cenid: 18xx:3904
!!!COM: Kątski, Antoni
!!!COM-rismID: pe30017994
!!!CDT: 1817-1899
!!!CNT:
!!!OPR: Grande fantaisie sur l’opera de Verdi Le Trovatore op. 157
!!!OTL: Allegro di Bravura
!!!OMV: 003
!!!PDT:
!!!AGN: Secular; Fantasy
!!!YEC: Copyright 2022 Narodowy Instytut Fryderyka Chopina (https://polishscores.org)
!!!YEM: License CC-BY-4.0 (https://creativecommons.org/licenses/by/4.0)
!!!SMS-siglum: PL-Wnifc
!!!SMS-shelfmark: 6817/n
!!!SMS-shelfwork: 001-003 M
!!!SMS-variant:
!!!SMS-altvar:
!!!NIFC-rismSourceID: 1001159514
!!!NIFC-rismChildID: 1001159514
!!!NIFC-islandoraID: nifc:213680
!!!URL-pdf-islandora: https://repozytorium.nifc.pl/islandora/object/nifc%3A213680/datastream/PDF/view
!!!URL-scan: https://polish.musicsources.pl/pl/lokalizacje/galeria/druki-muzyczne/16936 @EN{Scan on Polish Music Sources Website} @PL{Skany w portalu Dziedzictwo Muzyki Polskiej w otwartym dostępie}
!!!IIIF:
!!!ONB-nifc:
!!!AIN: 2 piano
!!!key: C
**kern	**kern	**fing	**dynam
*part2	*part1	*	*
*staff2	*staff1	*	*
*I"PIANO.	*I"PIANO.	*	*
*I'Pf	*I'Pf	*	*
*Ipiano	*Ipiano	*	*
*ICklav	*ICklav	*	*
*clefF4	*clefG2	*	*
*k[]	*k[]	*	*
*C:	*C:	*	*
*M3/4	*M3/4	*	*
=1	=1	=1	=1
!	!LO:TX:a:B:t=ALLEGRO.\ndi \nBravura.	!	!
2.r	8.a-X^^</L	.	f
.	32a-/LL	.	.
.	32a-/JJJ	.	.
.	8.a-^^</L	.	.
.	32a-/LL	.	.
.	32a-/JJJ	.	.
.	8.a-^^</L	.	.
.	32a-/LL	.	.
.	32a-/JJJ	.	.
=2	=2	=2	=2
2.r	8cc'\L	.	.
.	8a-X'\	.	.
.	8cc'\	.	.
.	8a-'\	.	.
.	8cc'\	.	.
.	8a-'\J	.	.
=3	=3	=3	=3
*	*^	*	*
2.r	8.cc/L	8.a-X^^\L	.	.
.	32cc/LL	32a-\LL	.	.
.	32cc/JJJ	32a-\JJJ	.	.
.	8.cc/L	8.a-^^\L	.	.
.	32cc/LL	32a-\LL	.	.
.	32cc/JJJ	32a-\JJJ	.	.
.	8.cc/L	8.a-^^\L	.	.
.	32cc/LL	32a-\LL	.	.
.	32cc/JJJ	32a-\JJJ	.	.
=4	=4	=4	=4	=4
2.r	8ee-X'/L	8cc'\L	.	.
!LO:LB:g=original	!	!	!	!
.	8cc'/	8a-X'\	.	.
.	8ee-'/	8cc'\	.	.
.	8cc'/	8a-'\	.	.
.	8ee-'/	8cc'\	.	.
.	8cc'/J	8a-'\J	.	.
!	!LO:LB:g=original	!LO:LB:g=original	!	!
*	*v	*v	*	*
=5	=5	=5	=5
8A-X\L 8a-X	8cc\L 8ee-X	.	.
16A-\L 16a-	16cc\L 16ee-	.	.
16A-\JJ 16a-	16cc\JJ 16ee-	.	.
8A-\L 8a-	8cc\L 8ee-	.	.
8A-\J 8a-	8cc\ 8ee-	.	.
8A-\L 8a-	8cc\ 8een	.	.
8A-\J 8a-	8cc\J 8ee	.	.
=6	=6	=6	=6
8A-X\L 8a-X	8cc\L 8ff	.	.
8F\ 8A- 8c 8f	8cc\ 8ff 8aa-X	.	.
8C\ 8F 8A- 8c	8cc\ 8ff 8aa- 8ccc	.	.
8AA-X\J 8C 8F 8A-	8ff\J 8aa- 8ccc 8fff	.	.
8CC/L 8EE-X 8AA- 8C	8ff#X\L 8ccc	.	.
8AAA/J 8AA-	8ff#\J 8ccc 8fff	.	.
=7	=7	=7	=7
8.GGG/L 8.GG	8.gg\L 8.bb 8.ddd 8.ggg	.	.
32G/LL	32g\LL	.	.
32G/JJJ	32g\JJJ	.	.
8G/L	8g\L	.	.
8GGG/ 8CC 8EE-X 8GG	8aa-X\ 8ccc 8eee-X 8aaa-X	.	.
8GGG/ 8CC 8EE- 8GG	8gg\ 8ccc 8eee- 8ggg	.	.
8GGG/J 8CC 8EE- 8GG	8ff#X\J 8ccc 8fff#X	.	.
=8	=8	=8	=8
8.GGG/L 8.GG	8.gg\L 8.bb 8.ddd 8.ggg	.	.
32G/LL	32g\LL	.	.
32G/JJJ	32g\JJJ	.	.
8G/L	8g\L	.	.
8GGG/ 8CC 8EE-X 8GG	8aa-X\ 8ccc 8eee-X 8aaa-X	.	.
8GGG/ 8CC 8EE- 8GG	8gg\ 8ccc 8eee- 8ggg	.	.
8GGG/J 8CC 8EE- 8GG	8ff\J 8ccc 8fff#X	.	.
!LO:LB:g=original	!LO:LB:g=original	!	!
=9	=9	=9	=9
8GGG/L 8GG	8gg\L 8bb 8ddd 8ggg	.	.
16GG/L 16G	16dd\L 16ddd	.	.
16AA/JJ 16A	16cc\JJ 16ccc	.	.
16BB\LL 16B	16b\LL 16bb	.	.
16C\ 16c	16a\ 16aa	.	.
16D\ 16d	16g\ 16gg	.	.
16C\JJ 16c	16a\JJ 16aa	.	.
16BB\LL 16B	16b\LL 16bb	.	.
16AA\ 16A	16cc\ 16ccc	.	.
16GG\ 16G	16dd\ 16ddd	.	.
16FF\JJ 16F	16ee\JJ 16eee	.	.
=10	=10	=10	=10
*	*8va	*	*
!	!LO:TX:b:t=pesante.	!	!
16EE/LL 16E	16ff\LL 16fff	.	.
16DD/ 16D	16gg\ 16ggg	.	.
16CC/ 16C	16aa\ 16aaa	.	.
16BBB/JJ 16BB	16bb\JJ 16bbb	.	.
16AAA/LL 16AA	16ccc\LL 16cccc	.	.
16GGG/ 16GG	16ddd\ 16dddd	.	.
16FFF#X/ 16FF#X	16eee\ 16eeee	.	.
16FFFn/JJ 16FFn	16fff\JJ 16ffff	.	.
16EEE/LL 16EE	16fff#X\LL 16ffff#X	.	.
16EEE-X/ 16EE-X	16ggg\ 16gggg	.	.
16DDD/ 16DD	16ggg\ 16gggg	.	.
16DDD-X/JJ 16DD-X	16ggg\JJ 16gggg	.	.
*	*X8va	*	*
!LO:LB:g=original	!LO:LB:g=original	!	!
=11	=11	=11	=11
*	*8va	*	*
8CCC\L 8CC	4ggg\ 4cccc 4eeee 4gggg	.	.
16G\L 16c 16e 16g	.	.	.
16G\JJ 16c 16e 16g	.	.	.
*	*X8va	*	*
8G\L 8c 8e 8g	4r	.	.
8G\J 8c 8e 8g	.	.	.
8G\L 8c 8e 8g	4r	.	.
8G\J 8c 8e 8g	.	.	.
=12	=12	=12	=12
8CCC\L 8CC	2.r	.	.
16G\L 16c 16e 16g	.	.	.
16G\JJ 16c 16e 16g	.	.	.
8G\L 8c 8e 8g	.	.	.
8G\J 8c 8e 8g	.	.	.
8G\L 8c 8e 8g	.	.	.
8G\J 8c 8e 8g	.	.	ff
=13||	=13||	=13||	=13||
!	!LO:TX:b:t=ben marcato.	!	!
8CCC\L 8CC	4e/ 4g 4cc 4ee	.	.
16C\L 16E 16G	.	.	.
16C\JJ 16E 16G	.	.	.
8C\L 8E 8G	4e/ 4g 4cc 4ee	.	.
8C\ 8E 8G	.	.	.
8C\ 8E 8G	4e/ 4g 4cc 4ee	.	.
8C\J 8E 8G	.	.	.
=14	=14	=14	=14
8CCC/L 8CC	16e^\LL 16g 16ee	.	.
.	16f\ 16a 16ff	.	.
16C/L 16E 16G	16e\ 16g 16ee	.	.
16C/JJ 16E 16G	16f\JJ 16a 16ff	.	.
8C\L 8E 8G	2e^\ 2g 2ee	.	.
!	!LO:PB:g=original	!	!
8C\ 8E 8G	.	.	.
8C\ 8E 8G	.	.	.
8C\J 8E 8G	.	.	.
!LO:PB:g=original	!	!	!
=15	=15	=15	=15
8CCC/L 8CC	4c/ 4f 4a-X 4cc	.	.
16C/L 16F 16A-X	.	.	.
16C/JJ 16F 16A-	.	.	.
8C\L 8F 8A-	4c/ 4f 4a- 4cc	.	.
8C\ 8F 8A-	.	.	.
8C\ 8F 8A-	4c/ 4f 4a- 4cc	.	.
8C\J 8F 8A-	.	.	.
=16	=16	=16	=16
8CCC/L 8CC	16G^>/LL 16e 16g	.	.
.	16A/ 16f 16a	.	.
8C/J 8E	16G/ 16e 16g	.	.
.	16A/JJ 16f 16a	.	.
8C\L 8E	2G^>/ 2e 2g	.	.
8C\ 8E	.	.	.
8C\ 8E	.	.	.
8C\J 8E	.	.	.
=17	=17	=17	=17
8CCC\L 8CC	4g\ 4cc 4ee 4gg	.	.
8C\ 8E 8G	.	.	.
8E\ 8G 8c	4g\ 4cc 4ee 4gg	.	.
8C\ 8E 8G	.	.	.
8E\ 8c	4g#X\ 4cc 4ee 4gg#X	.	.
8C\J	.	.	.
=18	=18	=18	=18
8GGG\L 8GG	16a^\LL 16aa	.	.
.	16g#X\ 16gg#X	.	.
8D\ 8F 8G	16a\ 16aa	.	.
.	16f\JJ 16ff	.	.
8F\ 8G 8B	4..d^>/ 4..dd	.	.
8D\ 8F 8G	.	.	.
8F\ 8G 8B	.	.	.
8D\J 8F 8G	.	.	.
.	16e\ 16ee	.	.
!LO:LB:g=original	!LO:LB:g=original	!	!
=19	=19	=19	=19
8GGG\L 8GG	4f^\ 4a 4ff	.	.
8D\ 8F 8G	.	.	.
8F\ 8G 8B	4e^>/ 4g 4ee	.	.
8D\ 8F 8G	.	.	.
8F\ 8G 8B	4d^>/ 4f 4dd	.	.
8D\J 8F 8G	.	.	.
=20	=20	=20	=20
8CCC/L 8CC	16d/LL 16g 16dd	.	.
.	16c/ 16cc	.	.
8GG/ 8C	16B/ 16b	.	.
.	16A/JJ 16a	.	.
8C/ 8E	2G/ 2g	.	.
8GG/ 8C	.	.	.
8C/ 8E	.	.	.
8GG/J 8C	.	.	.
=21	=21	=21	=21
8CCC/L 8CC	4e/ 4g 4cc 4ee	.	.
16C/L 16E 16G	.	.	.
16C/JJ 16E 16G	.	.	.
8C\L 8E 8G	4e/ 4g 4cc 4ee	.	.
8C\ 8E 8G	.	.	.
8C\ 8E 8G	4e/ 4g 4cc 4ee	.	.
8C\J 8E 8G	.	.	.
=22	=22	=22	=22
8CCC/L 8CC	16e^\LL 16g 16ee	.	.
.	16f\ 16a 16ff	.	.
16C/L 16E 16G	16e\ 16g 16ee	.	.
16C/JJ 16E 16G	16f\JJ 16a 16ff	.	.
8C\L 8E 8G	2e^>/ 2g 2ee	.	.
8C\ 8E 8G	.	.	.
8C\ 8E 8G	.	.	.
8C\J 8E 8G	.	.	.
=23	=23	=23	=23
8CCC/L 8CC	4c/ 4f 4a-X 4cc	.	.
16C/L 16F 16A-X	.	.	.
16C/JJ 16F 16A-	.	.	.
8C\L 8F 8A-	4c/ 4f 4a- 4cc	.	.
8C\ 8F 8A-	.	.	.
8C\ 8F 8A-	4c/ 4f 4a- 4cc	.	.
8C\J 8F 8A-	.	.	.
!LO:LB:g=original	!LO:LB:g=original	!	!
=24	=24	=24	=24
8CCC/L 8CC	16G^>/LL 16e 16g	.	.
.	16A/ 16f 16a	.	.
8C/J 8E	16G/ 16e 16g	.	.
.	16A/JJ 16f 16a	.	.
8C\L 8E	2G^>/ 2e 2g	.	.
8C\ 8E	.	.	.
8C\ 8E	.	.	.
8C\J 8E	.	.	.
=25	=25	=25	=25
8CCC/L 8CC	4g\ 4cc 4ee 4gg	.	.
8C/ 8E 8G	.	.	.
8E/ 8G 8c	4g\ 4cc 4ee 4gg	.	.
8C/ 8E 8G	.	.	.
8E/ 8c	4g#X\ 4cc 4ee 4gg#X	.	.
8C/J	.	.	.
=26	=26	=26	=26
8GGG\L 8GG	16a\LL 16aa	.	.
.	16g#X\ 16gg#X	.	.
8D\ 8F 8G	16a\ 16aa	.	.
.	16f\JJ 16ff	.	.
8F\ 8G 8B	4..d^>/ 4..dd	.	.
8D\ 8F 8G	.	.	.
8F\ 8G 8B	.	.	.
8D\J 8F 8G	.	.	.
.	16e\ 16ee	.	.
=27	=27	=27	=27
8GGG\L 8GG	4f^\ 4a 4ff	.	.
8D\ 8F 8G	.	.	.
8F\ 8G 8B	4e^>/ 4g 4ee	.	.
8D\ 8F 8G	.	.	.
8F\ 8G 8B	4d^>/ 4f 4dd	.	.
8D\J 8F 8G	.	.	.
=28	=28	=28	=28
8CCC/L 8CC	2c/ 2e 2cc	.	.
8GG/ 8C	.	.	.
8C/ 8E	.	.	.
8E/ 8G	.	.	.
8C/ 8E	4r	.	.
8GG/J 8C	.	.	.
!LO:LB:g=original	!LO:LB:g=original	!	!
=29	=29	=29	=29
8CC\L	4cc\ 4ee-X	.	.
8C\ 8E-X 8G	.	.	.
8E-\ 8G 8c	4cc\ 4ee-	.	.
8C\ 8E- 8G	.	.	.
8E-\ 8G 8c	4cc\ 4ee-	.	.
8C\J 8E- 8G	.	.	.
=30	=30	=30	=30
*	*^	*	*
8DD\L	4raa	(>16b-X\LL 16dd	.	.
.	.	16cc\ 16ee	.	.
8D\ 8G 8B-X	.	16b-\ 16dd	.	.
.	.	16cc\JJ) 16ee	.	.
8G\ 8B- 8d	16raa	2b-^\ 2dd	.	.
!	!	!	!	!LO:DY:a
.	(<16ccc/LL 16eee-X	.	.	pp
8D\ 8G 8B-	16bb-X/ 16ddd	.	.	.
.	16ccc/JJ 16eee-	.	.	.
8G\ 8B- 8d	4bb-/) 4ddd	.	.	.
8D\J 8G 8B-	.	.	.	.
=31	=31	=31	=31	=31
8DD\L	4a^/ 4cc	8rc	.	.
8D\ 8F#X 8A	.	8d'\L	.	.
8F#\ 8A 8c	4a^/ 4cc	8d#X'\	.	.
8D\ 8F# 8A	.	8e'\	.	.
8A\ 8c	4a^/ 4cc	8f'\	.	.
8D\J 8A	.	8f#X'\J	.	.
=32	=32	=32	=32	=32
8GG\L	4raa	(>16g\LL 16b-X	.	.
.	.	16a\ 16cc	.	.
8D\ 8G 8B-X	.	16g\ 16b-	.	.
.	.	16a\JJ) 16cc	.	.
8G\ 8B- 8d	16raa	2g^\ 2b-	.	.
!	!	!	!	!LO:DY:a
.	(16aa/LL 16ccc	.	.	pp
8D\ 8G 8B-	16gg/ 16bb-X	.	.	.
.	16aa/JJ 16ccc	.	.	.
8G\ 8B- 8d	4gg/) 4bb-	.	.	.
8D\J 8G 8B-	.	.	.	.
=33	=33	=33	=33	=33
8CC\L	8raa	4ee-X^\ 4gg	.	.
8C\ 8E-X 8G	8ggg/	.	.	.
8E-\ 8G 8c	8raa	4dd^\ 4ff	.	.
8C\ 8E- 8G	8fff/	.	.	.
8E-\ 8G 8c	8raa	4cc^\ 4ee-	.	.
8C\J 8E- 8G	[8eee-X/	.	.	.
!LO:LB:g=original	!LO:LB:g=original	!LO:LB:g=original	!	!
=34	=34	=34	=34	=34
8DD\L	4raa]	(>16b-X\LL 16dd	.	.
.	.	16cc\ 16ee-X	.	.
8D\ 8G 8B-X	.	16b-\ 16dd	.	.
.	.	16cc\JJ) 16ee-	.	.
8G\ 8B- 8d	16raa	2b-^\ 2dd	.	.
.	(<16ccc/LL 16eee-X	.	.	.
8D\ 8G 8B-	16bb-X/ 16ddd	.	.	.
.	16ccc/JJ 16eee-	.	.	.
8G\ 8B- 8d	4bb-/) 4ddd	.	.	.
8D\J 8G 8B-	.	.	.	.
=35	=35	=35	=35	=35
8DD\L 8D	8raa	4a^\ 4cc	.	.
8D\	8ccc/	.	.	.
8G\ 8B-X	8raa	4g^\ 4b-X	.	.
8D\	8bb-X/	.	.	.
8A\ 8c	8raa	4d^\ 4f#X 4a	.	.
8D\J	8aa/	.	.	.
=36	=36	=36	=36	=36
8G\L 8Bn	8gg/	8g\L	.	.
8GG\ 8G	8raa	8G\ 8g	.	.
8FF#X\ 8F#X	4raa	8A\ 8a	.	.
8FFn\ 8Fn	.	8B\ 8b	.	.
8EE\ 8E	4raa	8c\ 8cc	.	.
8DD\J 8D	.	8d\J 8dd	.	.
=37	=37	=37	=37	=37
8CC\L 8C	8raa	4e^\ 4g 4b 4ee	.	ff
8C\ 8E 8G	8ee/ 8gg 8eee	.	.	.
8E\ 8G 8c	8raa	4e^\ 4g 4ee	.	.
8C\ 8E 8G	8ee/ 8gg 8eee	.	.	.
8E\ 8G 8c	8raa	4e^\ 4g 4ee	.	.
8C\J 8E 8G	8ee/ 8gg 8eee	.	.	.
=38	=38	=38	=38	=38
8CC\L 8C	4raa	16e\LL 16g 16ee	.	.
.	.	16f\ 16a 16ff	.	.
8C\ 8E 8G	.	16e\ 16g 16ee	.	.
.	.	16f\JJ 16a 16ff	.	.
8E\ 8G 8c	16raa	2e^\ 2g 2ee	.	.
.	16ff/LL 16aa 16fff	.	.	.
8C\ 8E 8G	16ee/ 16gg 16eee	.	.	.
.	16ff/JJ 16aa 16fff	.	.	.
8E\ 8G 8c	4ee/ 4gg 4eee	.	.	.
8C\J 8E 8G	.	.	.	.
!LO:LB:g=original	!LO:LB:g=original	!	!	!
=39	=39	=39	=39	=39
8CC\L 8C	8raa	4c^>\ 4e-X 4f#X 4a 4cc	.	.
8C\ 8F#X 8A	8cc/L 8ee-X 8ff#X 8aa 8ccc	.	.	.
8E-X\ 8F# 8A	8r	4c^>\ 4e- 4f# 4a 4cc	.	.
8C\ 8F# 8A	8cc/ 8ee- 8ff# 8aa 8ccc	.	.	.
8E-\ 8F# 8A	8r	4c^>\ 4e- 4f# 4a 4cc	.	.
8C\J 8F# 8A	8cc/J 8ee- 8ff# 8aa 8ccc	.	.	.
=40	=40	=40	=40	=40
8CC\L 8C	4raa	16G\LL 16e 16g	.	.
.	.	16A\ 16f 16a	.	.
8GG\ 8C	.	16G\ 16e 16g	.	.
.	.	16A\JJ 16f 16a	.	.
8C\ 8E	16raa	2G^>\ 2e 2g	.	.
.	16a/LL 16ff 16aa	.	.	.
8GG\ 8C	16g/ 16ee 16gg	.	.	.
.	16a/JJ 16ff 16aa	.	.	.
8C\ 8E	4g/ 4ee 4gg	.	.	.
8GG\J 8C	.	.	.	.
=41	=41	=41	=41	=41
8BBB\L 8BB	8raa	4g^>\ 4ee 4gg	.	.
8E\ 8G 8B	8gg/L 8ggg	.	.	.
8G\ 8c 8e	8r	4g^>\ 4ee 4gg	.	.
8E\ 8G 8c	8gg/ 8ggg	.	.	.
8G#X\ 8c 8e	8r	4g#X^>\ 4ee 4gg#X	.	.
8E\J 8G# 8c	8gg#X/J 8ggg#X	.	.	.
=42	=42	=42	=42	=42
8GGG\L 8GG	4raa	16a\LL 16aa	.	.
.	.	16g#X\ 16gg#X	.	.
8BB\ 8D 8F 8G	.	16a\ 16aa	.	.
.	.	16f\JJ 16ff	.	.
8D\ 8F 8G 8B	16raa	4.d\ 4.dd	.	.
.	16gg#X/LL 16ggg#X	.	.	.
8BB\ 8D 8F 8G	16aa/ 16aaa	.	.	.
.	16ff/JJ 16fff	.	.	.
8D\ 8F 8G 8B	4b/ 4ddd	.	.	.
8BB\J 8D 8F 8G	.	8e\ 8ee	.	.
=43	=43	=43	=43	=43
8GGG\L 8GG	8raa	4f^>\ 4a 4ff	.	.
8BB\ 8D 8F 8G	8ff/L 8fff	.	.	.
8D\ 8F 8G 8B	8r	4g^>\ 4b 4ee	.	.
8BB\ 8D 8F 8G	8ee/ 8eee	.	.	.
8D\ 8F 8G 8B	8r	4d^>\ 4f 4dd	.	.
8BB\J 8D 8F 8G	8dd/J 8ddd	.	.	.
!LO:LB:g=original	!LO:LB:g=original	!	!	!
*	*v	*v	*	*
=44	=44	=44	=44
8CC/L 8C	8c\ 8e 8cc	.	.
8BBB-X^/ 8BB-X	4g^\ 4cc 4ee 4gg	.	.
8BB-/ 8C 8E 8G	.	.	.
8AAA^/ 8AA	4f#X^\ 4cc 4ff#X	.	.
8AA/ 8C 8F#X	.	.	.
8AAA-X^/J 8AA-X	8fn^\ 8cc 8ffn	.	.
=45	=45	=45	=45
8GGG^/L 8GG	8e/L 8g 8ee	.	.
8GG/ 8C 8E	8e/J 8g	.	.
8C/ 8E 8G	4.e^>/ 4.g 4.ee	.	.
8GG/ 8C 8E	.	.	.
8BB/ 8D 8G	.	.	.
8GG/J 8BB 8D	8d\ 8f 8dd	.	.
=46	=46	=46	=46
8CC/L 8C	8c\ 8e 8cc	.	.
8BBB-X^/ 8BB-X	4gg\ 4ccc 4eee 4ggg	.	.
8BB-/ 8C 8E 8G	.	.	.
8AAA^/ 8AA	4ff#X\ 4ccc 4fff#X	.	.
8AA/ 8C 8F#X	.	.	.
8AAA-X^/J 8AA-X	8ffn\ 8ccc 8fffn	.	.
=47	=47	=47	=47
8GGG^/L 8GG	8ee\L 8gg 8ccc 8eee	.	.
8GG/ 8C 8E	8g\J 8ee 8gg	.	.
8C/ 8E 8G	4.ee^\ 4.gg 4.eee	.	.
8GG/ 8C 8E	.	.	.
8BB/ 8F 8G	.	.	.
8GG/J 8BB 8F	8dd\ 8ff 8ddd	.	.
=48	=48	=48	=48
8CC\L 8C	8cc\L 8ee 8gg 8ccc	.	.
8E\ 8G 8c	16r	.	.
.	8cc\ 8ccc	.	.
8F\ 8A 8d	.	.	.
.	8dd\ 8ddd	.	.
8G\ 8B 8e	.	.	.
.	8ee\ 8eee	.	.
8A\ 8c 8f	.	.	.
.	8ff\ 8fff	.	.
8G\J 8B 8e	.	.	.
.	[16ee\Jk [16eee	.	.
!LO:LB:g=original	!LO:LB:g=original	!	!
=49	=49	=49	=49
8F\L 8A 8d	16ee\KL] 16eee]	.	.
.	8dd\ 8ddd	.	.
8G\ 8B 8e	.	.	.
.	8ee\ 8eee	.	.
8A\ 8c 8f	.	.	.
.	8ff\ 8fff	.	.
8B\ 8d 8g	.	.	.
.	8gg\ 8ggg	.	.
8c\ 8e 8a	.	.	.
.	8aa\ 8aaa	.	.
8B\J 8d 8g	.	.	.
.	[16gg\Jk [16ggg	.	.
=50	=50	=50	=50
8A\L 8c 8f	16gg\KL] 16ggg]	.	.
.	8ff\ 8fff	.	.
8B\ 8d 8g	.	.	.
.	8gg\ 8ggg	.	.
8c\ 8e 8a	.	.	.
.	8aa\ 8aaa	.	.
*clefG2	*	*	*
8d\ 8f 8b	.	.	.
*	*8va	*	*
.	8bb\ 8bbb	.	.
8e\ 8g 8cc	.	.	.
.	8ccc\ 8cccc	.	.
8e\J 8g 8b-X 8cc#X	.	.	.
.	[16ccc#X\Jk [16cccc#X	.	.
=51	=51	=51	=51
!	!LO:TX:b:t=pesante e rall.	!	!
8f\L 8g 8b 8dd	16ccc#X\KL] 16cccc#X]	.	.
.	8ddd\ 8dddd	.	.
*clefF4	*	*	*
8G\ 8g	.	.	.
.	8ggg\ 8gggg	.	.
8F\ 8f	.	.	.
.	8ggg\ 8gggg	.	.
8D\ 8d	.	.	.
.	8ggg\ 8gggg	.	.
8BB\ 8B	.	.	.
.	8ggg\ 8gggg	.	.
8GG\J 8G	.	.	.
.	16ggg\Jk 16gggg	.	.
!LO:LB:g=original	!LO:LB:g=original	!	!
=52||	=52||	=52||	=52||
!	!LO:TX:b:t=a tempo.	!	!
8E^\L 8e	24eeee\LL 24gggg	5	.
.	(24dddd#X\ 24ffff#X	.	.
.	24ddddn\ 24ffffn	.	.
8CC\ 8C	24cccc#X\ 24eeee	5	.
.	24ccccn\ 24eeee-X	.	.
.	24bbb\ 24dddd	.	.
8E^\ 8c 8e	24bbb-X\ 24dddd-X	4	.
.	24aaa\ 24cccc	.	.
.	24ggg#X\ 24bbbn	5	.
8CC\ 8C	24gggn\ 24bbb-X	.	.
.	24fff#X\ 24aaa	5	.
.	24fffn\ 24aaa-X	.	.
8E^\ 8c 8e	24eee\ 24ggg	.	.
.	24ddd#X\ 24fff#X	4	.
.	24dddn\ 24fffn	.	.
8CC\J 8C	24ccc#X\ 24eee	5	.
.	24cccn\ 24eee-X	.	.
.	24bbn\JJ 24dddn	.	.
*	*X8va	*	*
=53	=53	=53	=53
*	*Xtuplet	*	*
16E^\LL 16c 16e	24bb-X\LL 24ddd-X	4	.
.	24aa\ 24ccc	.	.
16F\ 16d 16f	.	.	.
.	24gg#X\ 24bbn	4	.
16E^\ 16c 16e	24ggn\ 24bb-X	.	.
.	24ff#X\ 24aa	5	.
16F^\JJ 16d 16f	.	.	.
.	24ffn\ 24aa-X	.	.
8E^\L 8c 8e	24ee\ 24gg	.	.
.	24dd#X\ 24ff#X	4	.
.	24ddn\ 24ffn	.	.
8CC\ 8C	24cc#X\ 24ee	5	.
.	24ccn\ 24ee-X	.	.
.	24b\ 24dd	.	.
8CC\ 8C	24b-X\ 24dd-X	4	.
.	24a\ 24cc	.	.
.	24g#X\ 24b-X	.	.
8CC\J 8C	32gn\L 32b-X	.	.
.	32f#X\ 32a	5	.
.	32fn\ 32a-X	.	.
.	32en\JJJ) 32g	.	.
!LO:LB:g=original	!LO:LB:g=original	!	!
=54	=54	=54	=54
8C^^\L 8E 8F#X 8c	24f#X^^\LL 24a	.	.
.	24e-X\	.	.
.	24c\	.	.
8CC\ 8C	24a^^\ 24cc	.	.
.	24f#\	.	.
.	24e-\JJ	.	.
8C^^\ 8E 8F# 8c	24cc^^\LL 24ee	.	.
.	24a\	.	.
.	24f#\	.	.
8CC\ 8C	24ee\ 24ff	.	.
.	24cc\	.	.
.	24a\JJ	.	.
8C^^\ 8E 8F# 8c	24ff#y^^\LL 24aa	.	.
.	24ee-y\	.	.
.	24cc\	.	.
8CC\J 8C	24aa^^\ 24ccc	.	.
.	24ff#\	.	.
.	24ee-\JJ	.	.
=55	=55	=55	=55
16GG^^\LL 16G	24ccc^^\LL 24eee	.	.
.	24gg\	.	.
16AA^^\ 16A	.	.	.
.	24ee\	.	.
16GG^^\ 16G	24gg^^\ 24ccc	.	.
.	24ee\	.	.
16AA^^\JJ 16A	.	.	.
.	24cc\JJ	.	.
4GG^^\ 4G	24ccc^^\LL 24eee	.	.
.	24gg\	.	.
.	24ee\	.	.
.	24eee^^\ 24ggg	.	.
.	24ccc\	.	.
.	24gg\JJ	.	.
*	*8va	*	*
4GGG/ 4GG	24ggg^^\LL 24cccc	.	.
.	24eee\	.	.
.	24ccc\	.	.
.	24cccc^^\ 24eeee	.	.
.	24ggg\	.	.
.	24eee\JJ	.	.
=56	=56	=56	=56
8G^^\L 8c 8e 8g	24ggg\LL 24gggg	.	.
.	24eeee\	.	.
.	24cccc\	.	.
8GG\ 8G	24ggg\	.	.
.	24cccc\	.	.
.	24eeee\JJ	.	.
8G^^\ 8c 8e 8g	24ggg\LL 24gggg	.	.
.	24eeee\	.	.
.	24cccc\	.	.
8GG\ 8G	24ggg\	.	.
.	24cccc\	.	.
.	24eeee\JJ	.	.
8G#X^^\ 8c 8e 8g#X	24ggg#X^^\LL 24gggg#X	.	.
.	24eeee\	.	.
.	24cccc\	.	.
8GGn\J 8Gn	24ggg#\	.	.
.	24cccc\	.	.
.	24eeee\JJ	.	.
!LO:PB:g=original	!LO:PB:g=original	!	!
=57	=57	=57	=57
16A^^\LL 16a	16aaa^^\LL 16aaaa	.	.
16G#X^^\ 16g#X	16ggg#X^^\ 16gggg#X	.	.
16A^^\ 16a	16aaa^^\ 16aaaa	.	.
16F^^\JJ 16f	16fff\JJ 16ffff	.	.
4D\ 4d	24ddd^^\LL 24dddd	.	.
.	24bbb\	.	.
.	24ggg#\	.	.
*	*X8va	*	*
.	24ddd\	.	.
.	24bb\	.	.
.	24gg#X\JJ	.	.
8GGGn/L 8GGn	24dd\LL	.	f
.	24gg#\	.	.
.	24bb\J	.	.
8E^^\J 8e	8ee^^\J 8eee	.	.
=58	=58	=58	=58
8F^^\L 8f	24ff^^\LL 24fff	.	.
.	24bb\	.	.
.	24ddd\J	.	.
*	*8va	*	*
8GG\J 8G	8fff\J 8ffff	.	.
*	*X8va	*	*
8E^^\L 8G 8B 8e	24ee^^\LL 24eee	.	.
.	24gg\	.	.
.	24bb\J	.	.
*	*8va	*	*
8GG\J 8G	8eee^^\J 8eeee	.	.
*	*X8va	*	*
8D^^\L 8G 8B 8d	24dd\LL 24ddd	.	.
.	24gg\	.	.
.	24bb\J	.	.
*	*8va	*	*
8GG\J 8G	8ddd^^\J 8dddd	.	.
*	*X8va	*	*
=59	=59	=59	=59
16D^^\LL 16d	16dd^^\LL 16ddd	.	.
16C^^\ 16c	16cc^^\ 16ccc	.	.
16BB^^\ 16B	16b^^\ 16bb	.	.
16AA^^\JJ 16A	16a^^\JJ 16aa	.	.
4GG^^\ 4G	(24g\LL 24gg	.	.
.	24cc\	.	.
.	24ee\	.	.
.	24gg\	.	.
.	24ccc\	.	.
.	24eee\JJ)	.	.
*	*8va	*	*
4CC/ 4C	(24gg\LL	.	.
!LO:LB:g=original	!	!	!
.	24ccc\	.	.
.	24eee\	.	.
.	24ggg\	.	.
.	24cccc\	.	.
.	24eeee\JJ)	.	.
!	!LO:LB:g=original	!	!
=60	=60	=60	=60
!	!LO:TX:b:t=a tempo.	!	!
8E^\L 8e	(24eeee\LL 24gggg	5	.
.	24dddd#X\ 24ffff#X	.	.
.	24ddddn\ 24ffffn	.	.
8CC\ 8C	24cccc#X\ 24eeee	5	.
.	24ccccn\ 24eeee-X	.	.
.	24bbb\ 24dddd	.	.
8E^\ 8c 8e	24bbb-X\ 24dddd-X	4	.
.	24aaa\ 24cccc	.	.
.	24ggg#X\ 24bbbn	4	.
8CC\ 8C	24gggn\ 24bbb-X	.	.
.	24fff#X\ 24aaa	5	.
.	24fffn\ 24aaa-X	.	.
8E^\ 8c 8e	24eee\ 24ggg	.	.
.	24ddd#X\ 24fff#X	4	.
.	24dddn\ 24fffn	.	.
8CC\J 8C	24ccc#X\ 24eee	5	.
.	24cccn\ 24eee-X	.	.
.	24bbn\JJ 24dddn	.	.
*	*X8va	*	*
=61	=61	=61	=61
16E^\LL 16c 16e	24bb-X\LL 24ddd-X	4	.
.	24aa\ 24ccc	.	.
16F^\ 16d 16f	.	.	.
.	24gg#X\ 24bbn	4	.
16E^\ 16c 16e	24ggn\ 24bb-X	.	.
.	24ff#X\ 24aa	5	.
16F^\JJ 16d 16f	.	.	.
.	24ffn\ 24aa-X	.	.
8E^\L 8c 8e	24ee\ 24gg	.	.
.	24dd#X\ 24ff#X	4	.
.	24ddn\ 24ffn	.	.
8CC\ 8C	24cc#X\ 24ee	5	.
.	24ccn\ 24ee-X	.	.
.	24b\ 24dd	.	.
8CC\ 8C	24b-X\ 24dd-X	4	.
.	24a\ 24cc	.	.
.	24g#X\ 24bn	4	.
8CC\J 8C	32gn\L 32b-X	.	.
.	32f#X\ 32a	5	.
.	32fn\) 32a-X	.	.
.	32en\JJJ 32g	.	.
!LO:LB:g=original	!LO:LB:g=original	!	!
=62	=62	=62	=62
8C\L 8E 8F#X 8c	24f#X\LL 24a	.	.
.	24e-X\	.	.
.	24c\	.	.
8CC\ 8C	24a^^\ 24cc	.	.
.	24f#\	.	.
.	24e-\JJ	.	.
8C^^\ 8E 8F# 8c	24cc^^\LL 24ee-X	.	.
.	24a\	.	.
.	24f#\	.	.
8CC\ 8C	24ee-^^\ 24ff#X	.	.
.	24cc\	.	.
.	24a\JJ	.	.
8C^^\ 8E 8F# 8c	24ff#^^\LL 24aa	.	.
.	24ee-\	.	.
.	24cc\	.	.
8CC\J 8C	24aa^^\ 24ccc	.	.
.	24ff#\	.	.
.	24ee-\JJ	.	.
=63	=63	=63	=63
16GG^^\LL 16G	24ccc^^\LL 24eee	.	.
.	24gg\	.	.
16AA^^\ 16A	.	.	.
.	24ee\	.	.
16GG^^\ 16G	24gg^^\ 24ccc	.	.
.	24ee\	.	.
16AA^^\JJ 16A	.	.	.
.	24cc\JJ	.	.
4GG^^/ 4G	24ccc^^\LL 24eee	.	.
.	24gg\	.	.
.	24ee\	.	.
.	24eee^^\ 24ggg	.	.
.	24ccc\	.	.
.	24gg\JJ	.	.
4GGG/ 4GG	24gg^^\LL 24ccc	.	.
.	24ee\	.	.
.	24cc\	.	.
.	24ccc^^\ 24eee	.	.
.	24gg\	.	.
.	24ee\JJ	.	.
=64	=64	=64	=64
8G^^\L 8c 8e 8g	24gg^^\LL 24ggg	.	.
.	24eee\	.	.
.	24ccc\	.	.
8GG\ 8G	24gg\	.	.
.	24ccc\	.	.
.	24eee\JJ	.	.
8G^^\ 8c 8e 8g	24gg^^\LL 24ggg	.	.
.	24eee\	.	.
.	24ccc\	.	.
8GG\ 8G	24gg\	.	.
.	24ccc\	.	.
.	24eee\JJ	.	.
8G#X^^\ 8c 8e 8g#X	24gg#X\LL 24ggg#X	.	.
.	24eee\	.	.
.	24ccc\	.	.
8GGn\J 8Gn	24gg#\	.	.
.	24ccc\	.	.
.	24eee\JJ	.	.
!LO:LB:g=original	!LO:LB:g=original	!	!
=65	=65	=65	=65
*	*8va	*	*
16A^^\LL 16a	16aaa^^\LL 16aaaa	.	.
16G#X^^\ 16g#X	16ggg#X^^\ 16gggg#X	.	.
16A^^\ 16a	16aaa\ 16aaaa	.	.
16F^^\JJ 16f	16fff\JJ 16ffff	.	.
4D^^\ 4d	24ddd^^\LL 24dddd	.	.
.	24bbb\	.	.
.	24ggg#\	.	.
*	*X8va	*	*
.	24ddd\	.	.
.	24bb\	.	.
.	24gg#X\JJ	.	.
8GGGn\L 8GGn	24dd\LL	.	.
.	24gg#\	.	.
.	24bb\J	.	.
8E^^\J 8e	8ee^^\J 8eee	.	.
=66	=66	=66	=66
8F\L 8f	24ff^^\LL 24fff	.	.
.	24bb\	.	.
.	24ddd\J	.	.
*	*8va	*	*
8GG\J 8G	8fff\J 8ffff	.	.
*	*X8va	*	*
8E^^\L 8G 8B 8e	24ee^^\LL 24eee	.	.
.	24gg\	.	.
.	24bb\J	.	.
*	*8va	*	*
8GG\J 8G	8eee^^\J 8eeee	.	.
*	*X8va	*	*
8D^^\L 8G 8B 8d	24dd\LL 24ddd	.	.
.	24gg\	.	.
.	24bb\J	.	.
*	*8va	*	*
8GG\J 8G	8ddd^^\J 8dddd	.	.
*	*X8va	*	*
=67	=67	=67	=67
*Xtuplet	*Xtuplet	*	*
(24C^^\LL 24E 24G 24c	(24cc^^\LL 24ccc	.	.
24G\	24ee\	.	.
24E\	24gg\	.	.
24C\	24ccc\	.	.
24GG\	24eee\	.	.
24EE\JJ	24ggg\JJ	.	.
24CC/LL	24cccc\LL	.	.
24EE/	24ggg\	.	.
24GG/	24eee\	.	.
24C/	24ccc\	.	.
24E/	24gg\	.	.
24G/JJ)	24ee\JJ)	.	.
4c\	4cc\	.	.
!LO:LB:g=original	!LO:LB:g=original	!	!
=68	=68	=68	=68
*	*^	*	*
!	!LO:TX:b:t=il canto ff gliaccompagnamenti pp	!	!	!
8CC^^\L 8C	4eee-X^/	24rc	.	.
.	.	24ddd\LL	.	.
.	.	24ddd-X\	.	.
(8G\	.	24ccc\	.	.
.	.	24bb\	.	.
.	.	24bb-X\JJ	.	.
8c\ 8e-X	4eee-^/	24aa\LL	.	.
.	.	24aa-X\	.	.
.	.	24gg\	.	.
8G\	.	24ff#X\	.	.
.	.	24gg\	.	.
.	.	24aa-\JJ	.	.
8c\ 8e-	4eee-^/	24gg\LL	.	.
.	.	24ff#\	.	.
.	.	24ffn\	.	.
8G\J)	.	24ee-X\	.	.
.	.	24dd\	.	.
.	.	24cc\JJ	.	.
=69	=69	=69	=69	=69
24D\LL	16ddd/LL	16bb-X\LL	.	.
24G\	.	.	.	.
.	16eee-X/	16gg\	.	.
24B-X\	.	.	.	.
*clefG2	*	*	*	*
24d\	16ddd/	16bb-\	.	.
24g\	.	.	.	.
.	16eee-/JJ	16gg\JJ	.	.
24b-X\JJ	.	.	.	.
24dd\LL	2ddd^/	2bb-\	.	.
24b-\	.	.	.	.
24g\	.	.	.	.
*clefF4	*	*	*	*
24d\	.	.	.	.
24B-X\	.	.	.	.
24G\JJ	.	.	.	.
24d\LL	.	.	.	.
24B-\	.	.	.	.
24G\	.	.	.	.
24D\	.	.	.	.
24BB-X\	.	.	.	.
24GG\JJ	.	.	.	.
=70	=70	=70	=70	=70
8DD^^\L	4ccc/	24rc	.	.
.	.	24bb\LL	.	.
.	.	24bb-X\	.	.
(8A\	.	24aa\	.	.
.	.	24aa-X\	.	.
.	.	24gg\JJ	.	.
8d\ 8f#X	4ccc^/	24ff#X\LL	.	.
.	.	24ffn\	.	.
.	.	24ee\	.	.
8A\	.	24ee-X\	.	.
.	.	24dd\	.	.
.	.	24cc#X\JJ	.	.
8d\ 8f#	4cccn^/	24rc	.	.
.	.	24dd\LL	.	.
.	.	24dd#X\	.	.
8A\J)	.	24een\	.	.
.	.	24ff\	.	.
.	.	24ff#X\JJ	.	.
!LO:LB:g=original	!	!LO:LB:g=original	!	!
=71	=71	=71	=71	=71
24GGG/LL	16bb-X/LL	16gg\LL	.	.
24GG/	.	.	.	.
.	16ccc/	16aa\	.	.
24BB-X/	.	.	.	.
24D/	16bb-/	16gg\	.	.
24G/	.	.	.	.
.	16ccc/JJ	16aa\JJ	.	.
24B-X/JJ	.	.	.	.
24d>\LL	2bb-/	2gg\	.	.
24g>\	.	.	.	.
24b-X>\	.	.	.	.
24dd>\	.	.	.	.
24b->\	.	.	.	.
24g>\JJ	.	.	.	.
24d>\LL	.	.	.	.
24B-\	.	.	.	.
24G\	.	.	.	.
24D\	.	.	.	.
24BB-\	.	.	.	.
24GG\JJ	.	.	.	.
=72	=72	=72	=72	=72
8CC\L	4eee-X^/ 4ggg	24rc	.	.
.	.	24gg\LL	.	.
.	.	24aa\	.	.
8G\	.	24bb-X\	.	.
.	.	24aa\	.	.
.	.	24gg\JJ	.	.
8E-X\ 8c	4ddd^/ 4fff	24rc	.	.
.	.	24gg\LL	.	.
.	.	24aa\	.	.
8G\	.	24bb-\	.	.
.	.	24aa\	.	.
.	.	24gg\JJ	.	.
8E-\ 8c	4ccc^/ 4eee-	24rc	.	.
.	.	24gg\LL	.	.
.	.	24aa\	.	.
8G\J	.	24bb-\	.	.
.	.	24aa\	.	.
.	.	24gg\JJ	.	.
!LO:LB:g=original	!LO:LB:g=original	!LO:LB:g=original	!	!
=73	=73	=73	=73	=73
24DD\LL	16ddd/LL	16bb-X\LL	.	.
24GG\	.	.	.	.
.	16eee-X/	16gg\	.	.
24BB-X\	.	.	.	.
24D\	16ddd/	16bb-\	.	.
24G\	.	.	.	.
.	16eee-/JJ	16gg\JJ	.	.
24B-X\JJ	.	.	.	.
24d>\LL	2ddd^/	2bb-\	.	.
24g>\	.	.	.	.
24b-X>\	.	.	.	.
24dd>\	.	.	.	.
24b->\	.	.	.	.
24g>\JJ	.	.	.	.
24d>\LL	.	.	.	.
24B-\	.	.	.	.
24G\	.	.	.	.
24D\	.	.	.	.
24BB-\	.	.	.	.
24GG\JJ	.	.	.	.
=74	=74	=74	=74	=74
*^	*	*	*	*
24rc	4D^^\	4ccc/	24rc	.	.
(<24e-X/LL	.	.	(>24cc\LL	.	.
24f/	.	.	24dd\	.	.
24g/	.	.	24ee-X\	.	.
24f/	.	.	24dd\	.	.
24e-/JJ)	.	.	24cc\JJ)	.	.
24rc	4D^^\	4bb-X^/	24rc	.	.
(<24d/LL	.	.	(>24b-X\LL	.	.
24e-/	.	.	24cc\	.	.
24f/	.	.	24dd\	.	.
24e-/	.	.	24cc\	.	.
24d/JJ)	.	.	24b-\JJ)	.	.
24rc	4D^^\	4aa^/	24rc	.	.
(<24c/LL	.	.	(>24a\LL	.	.
24d/	.	.	24b-\	.	.
24e-/	.	.	24cc\	.	.
24d/	.	.	24b-\	.	.
24c/JJ)	.	.	24a\JJ)	.	.
!LO:LB:g=original	!	!	!LO:LB:g=original	!	!
=75	=75	=75	=75	=75	=75
24rc	4G\	4gg/	24rc	.	.
(<24B/LL	.	.	(>24g\LL	.	.
24c/	.	.	24a\	.	.
24d/	.	.	24b\	.	.
24c/	.	.	24a\	.	.
24B/JJ)	.	.	24g\JJ)	.	.
24rc	4G\	4aa-X^/	24rc	.	.
(<24c/LL	.	.	(>24a-X\LL	.	.
24d/	.	.	24b-X\	.	.
24e-X/	.	.	24cc\	.	.
24d/	.	.	24b-\	.	.
24c/JJ)	.	.	24a-\JJ)	.	.
24rc	4G\	4aan^/	24rc	.	.
(<24c#X/LL	.	.	(>24an\LL	.	.
24d/	.	.	24bn\	.	.
24en/	.	.	24cc#X\	.	.
24d/	.	.	24b\	.	.
24c#/JJ)	.	.	24a\JJ)	.	.
=76	=76	=76	=76	=76	=76
24rc	4G\	4aa-X^/	24rc	.	.
(<24c#X/LL	.	.	(>24a-X\LL	.	.
24d/	.	.	24b-X\	.	.
24e-X/	.	.	24cc\	.	.
24d/	.	.	24b-\	.	.
24c#/JJ)	.	.	24a-\JJ)	.	.
24rc	4G\	4aan^/	24rc	.	.
(<24c#X/LL	.	.	(>24an\LL	.	.
24d/	.	.	24bn\	.	.
24en/	.	.	24cc#X\	.	.
24d/	.	.	24b\	.	.
24c#/JJ)	.	.	24a\JJ)	.	.
24rc	4G\	4bb-X^/	24rc	.	.
(<24d/LL	.	.	(>24b-X\LL	.	.
24e/	.	.	24ccn\	.	.
24f/	.	.	24dd\	.	.
24e/	.	.	24cc\	.	.
24d/JJ)	.	.	24b-\JJ)	.	.
!LO:LB:g=original	!	!	!LO:LB:g=original	!	!
=77	=77	=77	=77	=77	=77
24rc	4G^^\	4aa^/	24rc	.	.
(<24c#X/LL	.	.	(>24a\LL	.	.
24d/	.	.	24b\	.	.
24e/	.	.	24cc#X\	.	.
24d/	.	.	24b\	.	.
24c#/JJ)	.	.	24a\JJ)	.	.
24rc	4G^^\	4bb-X^/	24rc	.	.
(<24d/LL	.	.	(>24b-X\LL	.	.
24e/	.	.	24ccn\	.	.
24f/	.	.	24dd\	.	.
24e/	.	.	24cc\	.	.
24d/JJ)	.	.	24b-\JJ)	.	.
24rc	4G^^\	4bbn^/	24rc	.	.
(<24d/LL	.	.	(>24bn\LL	.	.
24e/	.	.	24cc\	.	.
24f/	.	.	24dd\	.	.
24e/	.	.	24cc\	.	.
24d/JJ)	.	.	24b\JJ)	.	.
=78	=78	=78	=78	=78	=78
24rc	4G^^\	4ccc^^/	24rc	.	.
(<24e/LL	.	.	(>24cc\LL	.	.
24f/	.	.	24dd\	.	.
24g/	.	.	24ee\	.	.
24f/	.	.	24dd\	.	.
24e/JJ)	.	.	24cc\JJ)	.	.
24rc	4G^^\	4ddd^^/	24rc	.	.
(<24B/LL	.	.	(>24dd\LL	.	.
24d/	.	.	24ff\	.	.
24g/	.	.	24gg\	.	.
24d/	.	.	24ff\	.	.
24B/JJ)	.	.	24dd\JJ)	.	.
24rc	4G^^\	4ddd#X^^/	24rc	.	.
(<24B/LL	.	.	(>24dd#X\LL	.	.
24d#X/	.	.	24gg\	.	.
24g/	.	.	24dd#\	.	.
24d#/	.	.	24gg\	.	.
24B/JJ)	.	.	24dd#\JJ)	.	.
!LO:LB:g=original	!	!	!LO:LB:g=original	!	!
*v	*v	*	*	*	*
*	*v	*v	*	*
=79	=79	=79	=79
*	*8va	*	*
!	!LO:TX:b:t=a tempo.	!	!
8E^\L 8e	(24eeee\LL 24gggg	5	.
.	24dddd#X\ 24ffff#X	.	.
.	24ddddn\ 24ffffn	.	.
8CC\ 8C	24cccc#X\ 24eeee	5	.
.	24ccccn\ 24eeee-X	.	.
.	24bbb\ 24dddd	.	.
8E^\ 8c 8e	24bbb-X\ 24dddd-X	4	.
.	24aaa\ 24cccc	.	.
.	24ggg#X\ 24bbbn	4	.
8CC\ 8C	24gggn\ 24bbb-X	.	.
.	24fff#X\ 24aaa	5	.
.	24fffn\ 24aaa-X	.	.
8E^\ 8c 8e	24eee\ 24ggg	4	.
.	24ddd#X\ 24fff#X	.	.
.	24dddn\ 24fffn	.	.
8CC\J 8C	24ccc#X\ 24eee	5	.
.	24cccn\ 24eee-X	.	.
.	24bbn\JJ 24ddd	.	.
*	*X8va	*	*
=80	=80	=80	=80
16E^\LL 16c 16e	24bb-X\LL 24ddd-X	4	.
.	24aa\ 24ccc	.	.
16F^\ 16d 16f	.	.	.
.	24gg#X\ 24bbn	4	.
16E^\ 16c 16e	24ggn\ 24bb-X	.	.
.	24ff#X\ 24aa	5	.
16F^\JJ 16d 16f	.	.	.
.	24ffn\ 24aa-X	.	.
8E^\L 8c 8e	24ee\ 24gg	.	.
.	24dd#X\ 24ff#X	4	.
.	24ddn\ 24ffn	.	.
8CC\ 8C	24cc#X\ 24ee	5	.
.	24ccn\ 24ee-X	.	.
.	24b\ 24dd	.	.
8CC\ 8C	24b-X\ 24dd-X	4	.
.	24a\ 24cc	.	.
.	24g#X\ 24bn	4	.
8CC\J 8C	32gn\L 32b	.	.
.	32f#X\ 32a	5	.
.	32fn\) 32a-X	.	.
.	32en\JJJ 32g	.	.
!LO:PB:g=original	!LO:PB:g=original	!	!
=81	=81	=81	=81
8C\L 8E 8F#X 8c	24f#X\LL 24a	.	.
.	24e-X\	.	.
.	24c\	.	.
8CC\ 8C	24a^^\ 24cc	.	.
.	24f#\	.	.
.	24e-\JJ	.	.
8C^^\ 8E 8F# 8c	24cc^^\LL 24ee-X	.	.
.	24a\	.	.
.	24f#\	.	.
8CC\ 8C	24ee-^^\ 24ff#X	.	.
.	24cc\	.	.
.	24a\JJ	.	.
8C^^\ 8E 8F# 8c	24ff#^^\LL 24aa	.	.
.	24ee-\	.	.
.	24cc\	.	.
8CC\J 8C	24aa^^\ 24ccc	.	.
.	24ff#\	.	.
.	24ee-\JJ	.	.
=82	=82	=82	=82
16GG^^\LL 16G	24ccc^^\LL 24eee	.	.
.	24gg\	.	.
16AA^^\ 16A	.	.	.
.	24ee\	.	.
16GG^^\ 16G	24gg^^\ 24ccc	.	.
.	24ee\	.	.
16AA^^\JJ 16A	.	.	.
.	24cc\JJ	.	.
4GG^^\ 4G	24ccc^^\LL 24eee	.	.
.	24gg\	.	.
.	24ee\	.	.
.	24eee^^\ 24ggg	.	.
.	24ccc\	.	.
.	24gg\JJ	.	.
*	*8va	*	*
4GGG/ 4GG	24ggg^^\LL 24cccc	.	.
.	24eee\	.	.
.	24ccc\	.	.
.	24cccc^^\ 24eeee	.	.
.	24ggg\	.	.
.	24eee\JJ	.	.
=83	=83	=83	=83
8G^^\L 8c 8e 8g	24ggg\LL 24gggg	.	.
.	24eeee\	.	.
.	24cccc\	.	.
8GG\ 8G	24ggg\	.	.
.	24cccc\	.	.
.	24eeee\JJ	.	.
8G^^\ 8c 8e 8g	24ggg\LL 24gggg	.	.
.	24eeee\	.	.
.	24cccc\	.	.
8GG\ 8G	24ggg\	.	.
.	24cccc\	.	.
.	24eeee\JJ	.	.
8G#X^^\ 8c 8e 8g#X	24ggg#X\LL 24gggg#X	.	.
.	24eeee\	.	.
.	24cccc\	.	.
8GGn\J 8Gn	24ggg#\	.	.
.	24cccc\	.	.
.	24eeee\JJ	.	.
=84	=84	=84	=84
16A^^\LL 16a	16aaa^^\LL 16aaaa	.	.
16G#X^^\ 16g#X	16ggg#X\ 16gggg#X	.	.
16A^^\ 16a	16aaa\ 16aaaa	.	.
16F^^\JJ 16f	16fff\JJ 16ffff	.	.
4D^^\ 4d	24ddd\LL 24dddd	.	.
.	24bbb\	.	.
.	24ggg#\	.	.
*	*X8va	*	*
.	24ddd\	.	.
.	24bb\	.	.
.	24gg#X\JJ	.	.
8GGGn/L 8GGn	24dd\LL	.	.
.	24gg#\	.	.
.	24bb\J	.	.
8E^^\J 8e	8ee^^\J 8eee	.	.
!LO:LB:g=original	!LO:LB:g=original	!	!
=85	=85	=85	=85
8F^^\L 8f	24ff^^\LL 24fff	.	.
.	24bb\	.	.
.	24ddd\J	.	.
*	*8va	*	*
8GG\J 8G	8fff\J 8ffff	.	.
*	*X8va	*	*
8E^^\L 8G 8B 8e	24ee^^\LL 24eee	.	.
.	24gg\	.	.
.	24bb\J	.	.
*	*8va	*	*
8GG\J 8G	8eee^^\J 8eeee	.	.
*	*X8va	*	*
8D^^\L 8G 8B 8d	24dd\LL 24ddd	.	.
.	24gg\	.	.
.	24bb\J	.	.
*	*8va	*	*
8GG\J 8G	8ddd^^\J 8dddd	.	.
*	*X8va	*	*
=86	=86	=86	=86
16D^^\LL 16d	16dd^^\LL 16ddd	.	.
16C^^\ 16c	16cc^^\ 16ccc	.	.
16BB^^\ 16B	16b^^\ 16bb	.	.
16AA^^\JJ 16A	16a^^\JJ 16aa	.	.
4GG^^\ 4G	(24g^^\LL 24gg	.	.
.	24cc\	.	.
.	24ee\	.	.
.	24gg\	.	.
.	24ccc\	.	.
.	24eee\JJ)	.	.
*	*8va	*	*
4CC/ 4C	24gg\LL	.	.
.	24ccc\	.	.
.	24eee\	.	.
.	24ggg\	.	.
.	24cccc\	.	.
.	24eeee\JJ	.	.
=87	=87	=87	=87
!	!LO:TX:b:t=a tempo.	!	!
8E\L 8c 8e	(24eeee\LL 24gggg	5	.
.	24dddd#X\ 24ffff#X	.	.
.	24ddddn\ 24ffffn	.	.
8CC\ 8C	24cccc#X\ 24eeee	5	.
.	24ccccn\ 24eeee-X	.	.
.	24bbb\ 24dddd	.	.
8E^\ 8c 8e	24bbb-X\ 24dddd-X	4	.
.	24aaa\ 24cccc	.	.
.	24ggg#X\ 24bbbn	4	.
8CC\ 8C	24gggn\ 24bbb-X	.	.
.	24fff#X\ 24aaa	5	.
.	24fffn\ 24aaa-X	.	.
8E^\ 8c 8e	24eee\ 24ggg	.	.
.	24ddd#X\ 24fff#X	4	.
.	24dddn\ 24fffn	.	.
8CC\J 8C	24ccc#X\ 24eee	5	.
.	24cccn\ 24eee-X	.	.
.	24bbn\JJ 24ddd	.	.
!LO:LB:g=original	!LO:LB:g=original	!	!
*	*X8va	*	*
=88	=88	=88	=88
16E^\LL 16c 16e	24bb-X\LL 24ddd-X	4	.
.	24aa\ 24ccc	.	.
16F^\ 16d 16f	.	.	.
.	24gg#X\ 24bbn	4	.
16E^\ 16c 16e	24ggn\ 24bb-X	.	.
.	24ff#X\ 24aa	5	.
16F^\JJ 16d 16f	.	.	.
.	24ffn\ 24aa-X	.	.
8E^\L 8c 8e	24ee\ 24gg	.	.
.	24dd#X\ 24ff#X	4	.
.	24ddn\ 24ffn	.	.
8CC\ 8C	24cc#X\ 24ee	5	.
.	24ccn\ 24ee-X	.	.
.	24b\ 24dd	.	.
8CC\ 8C	24b-X\ 24dd-X	4	.
.	24a\ 24cc	.	.
.	24g#X\ 24bn	4	.
8CC\J 8C	32gn\L 32b-X	.	.
.	32f#X\ 32a	5	.
.	32fn\) 32a-X	.	.
.	32e\JJJ 32g	.	.
=89	=89	=89	=89
8C\L 8E-X 8F#X 8c	24f#X^^\LL 24a	.	.
.	24e-X\	.	.
.	24c\	.	.
8CC\ 8C	24a^^\ 24cc	.	.
.	24f#\	.	.
.	24e-\JJ	.	.
8C^^\ 8E- 8F# 8c	24cc^^\LL 24ee-X	.	.
.	24a\	.	.
.	24f#\	.	.
8CC\ 8C	24ee-^^\ 24ff#X	.	.
.	24cc\	.	.
.	24a\JJ	.	.
8C^^\ 8E- 8F# 8c	24ff#^^\LL 24aa	.	.
.	24ee-\	.	.
.	24cc\	.	.
8CC\J 8C	24aa^^\ 24ccc	.	.
.	24ff#\	.	.
.	24ee-\JJ	.	.
=90	=90	=90	=90
16GG^^\LL 16G	24ccc^^\LL 24eee	.	.
.	24gg\	.	.
16AA^^\ 16A	.	.	.
.	24ee\	.	.
16GG^^\ 16G	24gg^^\ 24ccc	.	.
.	24ee\	.	.
16AA^^\JJ 16A	.	.	.
.	24cc\JJ	.	.
4GG^^/ 4G	24ccc^^\LL 24eee	.	.
.	24gg\	.	.
.	24ee\	.	.
.	24eee^^\ 24ggg	.	.
.	24ccc\	.	.
.	24gg\JJ	.	.
*	*8va	*	*
4GGG/ 4GG	24ggg^^\LL 24cccc	.	.
.	24eee\	.	.
.	24ccc\	.	.
.	24cccc^^\ 24eeee	.	.
.	24ggg\	.	.
.	24eee\JJ	.	.
!LO:LB:g=original	!LO:LB:g=original	!	!
=91	=91	=91	=91
8G^^\L 8c 8e 8g	24ggg^^\LL 24gggg	.	.
.	24eeee\	.	.
.	24cccc\	.	.
8GG\ 8G	24ggg\	.	.
.	24cccc\	.	.
.	24eeee\JJ	.	.
8G^^\ 8c 8e 8g	24ggg^^\LL 24gggg	.	.
.	24eeee\	.	.
.	24cccc\	.	.
8GG\ 8G	24ggg\	.	.
.	24cccc\	.	.
.	24eeee\JJ	.	.
8G#X^^\ 8c 8e 8g#X	24ggg#X\LL 24gggg#X	.	.
.	24eeee\	.	.
.	24cccc\	.	.
8GGn\J 8Gn	24ggg#\	.	.
.	24cccc\	.	.
.	24eeee\JJ	.	.
=92	=92	=92	=92
16A^^\LL 16a	16aaa^^\LL 16aaaa	.	.
16G#X^^\ 16g#X	16ggg#X\ 16gggg#X	.	.
16A^^\ 16a	16aaa^^\ 16aaaa	.	.
16F^^\JJ 16f	16fff\JJ 16ffff	.	.
4D^^\ 4d	24ddd^^\LL 24dddd	.	.
.	24bbb\	.	.
.	24ggg#\	.	.
*	*X8va	*	*
.	24ddd\	.	.
.	24bb\	.	.
.	24gg#X\JJ	.	.
8GGGn/L 8GGn	24dd\LL	.	.
.	24gg#\	.	.
.	24bb\J	.	.
8E^^\J 8e	8ee^^\J 8eee	.	.
=93	=93	=93	=93
8F^^\L 8f	24ff^^\LL 24fff	.	.
.	24bb\	.	.
.	24ddd\J	.	.
*	*8va	*	*
8GG\J 8G	8fff\J 8ffff	.	.
*	*X8va	*	*
8E^^\L 8G 8B 8e	24ee^^\LL 24eee	.	.
.	24gg\	.	.
.	24bb\J	.	.
*	*8va	*	*
8GG\J 8G	8eee^^\J 8eeee	.	.
*	*X8va	*	*
8D^^\L 8G 8B 8d	24dd\LL 24ddd	.	.
.	24gg\	.	.
.	24bb\J	.	.
*	*8va	*	*
8GG\J 8G	8ddd^^\J 8dddd	.	.
!LO:LB:g=original	!LO:LB:g=original	!	!
*	*X8va	*	*
=94	=94	=94	=94
8C^^\L 8c	16ee\LL 16ccc	.	.
.	16r	.	.
16c\Jk 16e 16g	16r	.	.
16r	16gg\JJ 16ccc 16eee 16ggg	.	.
16BB-X^^/LL 16B-X	16r	.	.
16r	16gg\LL 16ccc 16eee 16ggg	.	.
16B-/JJ 16c 16e 16g	16r	.	.
16r	16gg\JJ 16ccc 16eee 16ggg	.	.
16AA^^/LL 16A	16r	.	.
16r	16ff#X\LL 16ccc 16fff#X	.	.
16A/JJ 16c 16f#X	16r	.	.
16r	16ff#\JJ 16ccc 16fff#	.	.
=95	=95	=95	=95
16AA-X^^/LL 16A-X	16r	.	.
16r	16ffn\LL 16ccc 16fffn	.	.
16A-/JJ 16c 16fn	16r	.	.
16r	16ff\JJ 16ccc 16fff	.	.
16GG^^/LL 16G	16r	.	.
16r	16ee\LL 16gg 16ccc 16eee	.	.
16G/JJ 16c 16e	16r	.	.
16r	16ee\JJ 16gg 16ccc 16eee	.	.
16FF^^/LL 16F	16r	.	.
16r	16dd\LL 16gg 16bb 16ddd	.	.
16F/JJ 16G 16B 16d	16r	.	.
16r	16dd\JJ 16gg 16bb 16ddd	.	.
=96	=96	=96	=96
16EE^^/LL 16E	16r	.	.
16r	16cc\LL 16ccc	.	.
16G/JJ 16c 16e 16g	16r	.	.
16r	16gg\JJ 16ccc 16eee 16ggg	.	.
16BB-X/LL 16B-X	16r	.	.
16r	16gg\LL 16ccc 16eee 16ggg	.	.
16G/JJ 16c 16e 16g	16r	.	.
*	*8va	*	*
16r	16ggg\JJ 16cccc 16eeee 16gggg	.	.
*	*X8va	*	*
16AA^^/LL 16A	16r	.	.
16r	16ff#X\LL 16ccc 16fff#X	.	.
16A/JJ 16c 16e-X 16f#X	16r	.	.
*	*8va	*	*
16r	16fff#\JJ 16cccc 16ffff#X	.	.
!LO:LB:g=original	!LO:LB:g=original	!	!
*	*X8va	*	*
=97	=97	=97	=97
16AA-X^^/LL 16A-X	16r	.	.
16r	16ffn\LL 16ccc 16fffn	.	.
16A-/JJ 16c 16fn	16r	.	.
*	*8va	*	*
16r	16fff\JJ 16cccc 16ffff	.	.
*	*X8va	*	*
16GG^^/LL 16G	16r	.	.
16r	16ee\LL 16gg 16ccc 16eee	.	.
16G/JJ 16c 16e	16r	.	.
*	*8va	*	*
16r	16eee\JJ 16ggg 16cccc 16eeee	.	.
*	*X8va	*	*
16GG^^/LL 16G	16r	.	.
16r	16dd\LL 16gg 16bb 16ddd	.	.
16F/JJ 16G 16B 16d	16r	.	.
*	*8va	*	*
16r	16ddd\JJ 16ggg 16bbb 16dddd	.	.
*	*X8va	*	*
=98	=98	=98	=98
16CC/LL 16C	16r	.	.
16r	16cc\LL 16gg 16ccc	.	.
16E/JJ 16G 16c	16r	.	.
16r	16cc\JJ 16ccc	.	.
16F/LL 16A 16d	16r	.	.
16r	16dd\LL 16ddd	.	.
16G/JJ 16B 16e	16r	.	.
16r	16ee\JJ 16eee	.	.
16A/LL 16c 16f	16r	.	.
16r	16ff\LL 16fff	.	.
16G/JJ 16B 16e	16r	.	.
16r	16ee\JJ 16eee	.	.
=99	=99	=99	=99
16F/LL 16A 16d	16r	.	.
16r	16dd\LL 16ddd	.	.
16G/JJ 16B 16e	16r	.	.
16r	16ee\JJ 16eee	.	.
16A/LL 16c 16f	16r	.	.
16r	16ff\LL 16fff	.	.
16B/JJ 16d 16g	16r	.	.
16r	16gg\JJ 16ggg	.	.
16c/LL 16e 16a	16r	.	.
16r	16aa\LL 16aaa	.	.
16B/JJ 16d 16g	16r	.	.
16r	16gg\JJ 16ggg	.	.
!LO:LB:g=original	!LO:LB:g=original	!	!
*clefG2	*	*	*
=100	=100	=100	=100
*	*8va	*	*
16A/LL 16c 16f	16r	.	.
16r	16ff\LL 16fff	.	.
16B/JJ 16d 16g	16r	.	.
16r	16gg\JJ 16ggg	.	.
16c/LL 16e 16a	16r	.	.
16r	16aa\LL 16aaa	.	.
16d/JJ 16f 16b	16r	.	.
16r	16bb\JJ 16bbb	.	.
16e/LL 16g 16cc	16r	.	.
16r	16ccc\LL 16cccc	.	.
16d/JJ 16f 16b	16r	.	.
16r	16bb\JJ 16bbb	.	.
=101	=101	=101	=101
16e/LL 16g 16cc	16r	.	.
16r	16ccc\LL 16cccc	.	.
16f/JJ 16cc 16dd	16r	.	.
16r	16ddd\JJ 16dddd	.	.
16g/LL 16cc 16ee-X	16r	.	.
16r	16eee-X\LL 16eeee-X	.	.
16f#X/JJ 16cc 16dd	16r	.	.
16r	16ddd\JJ 16dddd	.	.
16g/LL 16cc 16ee-	16r	.	.
16r	16eee-\LL 16eeee-	.	.
16g/JJ 16b-X 16een	16r	.	.
16r	16eeen\JJ 16eeeen	.	.
*clefF4	*	*	*
=102	=102	=102	=102
24AAA-X^^\LL 24AA-X	24fff^^\LL 24ffff	.	.
24D-X\	24dddd-X\	.	.
24F\	24aaa-X\	.	.
24A-X\	24fff\	.	.
24d-X\	24ddd-X\	.	.
24f\JJ	24aa-X\JJ	.	.
24A-^^\LL 24a-X	24ff^^/LL 24fff	.	.
24f\	24aa-/	.	.
24d-\	24ddd-/	.	.
24A-\	24fff/	.	.
24F\	24aaa-/	.	.
24D-\JJ	24dddd-/JJ	.	.
16AAA-/LL 16DD-X 16FF 16AA-	16ggg-X\LL 16gggg-X	.	.
16AAA-/ 16DD- 16FF 16AA-	16fff\ 16ffff	.	.
16AAA-/ 16DD- 16FF 16AA-	16eee\ 16eeee	.	.
16AAA-/JJ 16DD- 16FF 16AA-	16fff\JJ 16ffff	.	.
!LO:LB:g=original	!LO:LB:g=original	!	!
=103	=103	=103	=103
24AAA-X^^\LL 24AA-X	24ggg-X^^\LL 24gggg-X	.	.
24C\	24eeee-X\	.	.
24E-X\	24cccc\	.	.
24A-X\	24ggg-\	.	.
24c\	24eee-X\	.	.
24e-X\JJ	24ccc\JJ	.	.
24A-^^\LL 24a-X	24gg-X^^/LL 24ggg-	.	.
24e-\	24ccc/	.	.
24c\	24eee-/	.	.
24A-\	24ggg-/	.	.
24E-\	24cccc/	.	.
24C\JJ	24eeee-/JJ	.	.
16AAA-/LL 16CC 16EE-X 16AA-	16ggg-\LL 16gggg-	.	.
16AAA-/ 16CC 16EE- 16AA-	16ggg-\ 16gggg-	.	.
16AAA-/ 16CC 16EE- 16AA-	16fff\ 16ffff	.	.
16AAA-/JJ 16CC 16EE- 16AA-	16ggg-\JJ 16gggg-	.	.
=104	=104	=104	=104
24GGG/LL 24GG	24aaa^^\LL 24aaaa	.	.
24CC/	24eeee\	.	.
24EE/	24cccc\	.	.
24GG/	24ggg^^\ 24gggg	.	.
24C/	24eeee\	.	.
24E/JJ	24cccc\JJ	.	.
24G\LL	24fff^^\LL 24ffff	.	.
24c\	24cccc\	.	.
24e\	24ggg\	.	.
24g\	24eee^^\ 24eeee	.	.
24e\	24cccc\	.	.
24c\JJ	24ggg\JJ	.	.
24G/LL	24ddd^^\LL 24dddd	.	.
24E/	24ggg\	.	.
24C/	24eee\	.	.
24GG/	24ccc^^\ 24cccc	.	.
24EE/	24ggg\	.	.
24CC/JJ	24eee\JJ	.	.
=105	=105	=105	=105
8GGG\L 8GG	24bb^^\LL 24bbb	.	.
.	24fff\	.	.
.	24ddd\	.	.
24AA^^\L 24A	24aa^^\ 24aaa	.	.
24F\	24fff\	.	.
24D\JJ	24ddd\JJ	.	.
24GG^^\LL 24G	24gg^^\LL 24ggg	.	.
24D\	24ddd\	.	.
24BB\	24bb\	.	.
24FF^^\ 24F	24ff^^\ 24fff	.	.
24D\	24ddd\	.	.
24BB\JJ	24bb\JJ	.	.
24EE^^\LL 24E	24ee^^\LL 24eee	.	.
24BB\	24bb\	.	.
24GG\	24gg\	.	.
24DD^^\ 24D	24dd^^\ 24ddd	.	.
24BB\	24bb\	.	.
24GG\JJ	24gg\JJ	.	.
!LO:LB:g=original	!LO:LB:g=original	!	!
=106	=106	=106	=106
24CC^^/LL 24C	24cc^^\LL 24ccc	.	.
24GG/	24ee\	.	.
24EE/	24gg\	.	.
24CC/	24ccc\	.	.
24GGG/	24eee\	.	.
24EEE/JJ	24ggg\JJ	.	.
24CCC/LL 24CC	24ccc^^\LL 24cccc	.	.
24EEE/	24ggg\	.	.
24GGG/	24eee\	.	.
24CC/	24ccc\	.	.
24EE/	24gg\	.	.
24GG/JJ	24ee\JJ	.	.
24CC^^/LL 24C	24cc^^\LL 24ccc	.	.
24GG/	24ee\	.	.
24EE/	24gg\	.	.
24CC/	24ccc\	.	.
24EE/	24gg\	.	.
24GG/JJ	24ee\JJ	.	.
=107	=107	=107	=107
24EE^^/LL 24E	24ee^^\LL 24eee	.	.
24C/	24gg\	.	.
24GG/	24ccc\	.	.
24EE/	24eee\	.	.
24CC/	24ggg\	.	.
24GGG/JJ	24cccc\JJ	.	.
24EEE^^/LL 24EE	24eee^^\LL 24eeee	.	.
24GGG/	24cccc\	.	.
24CC/	24ggg\	.	.
24EE/	24eee\	.	.
24GG/	24ccc\	.	.
24C/JJ	24gg\JJ	.	.
24EE^^/LL 24E	24ee^^\LL 24eee	.	.
24C/	24gg\	.	.
24GG/	24ccc\	.	.
24EE/	24eee\	.	.
24GG/	24ccc\	.	.
24C/JJ	24gg\JJ	.	.
=108	=108	=108	=108
24GG^^/LL 24G	24gg^^\LL 24ggg	.	.
24E/	24ccc\	.	.
24C/	24eee\	.	.
24GG/	24ggg\	.	.
24EE/	24cccc\	.	.
24CC/JJ	24eeee\JJ	.	.
24GGG^^/LL 24GG	24ggg^^\LL 24gggg	.	.
24CC/	24eeee\	.	.
24EE/	24cccc\	.	.
24GG/	24ggg\	.	.
24C/	24eee\	.	.
24E/JJ	24ccc\JJ	.	.
24GG^^\LL 24G	24gg^^\LL 24ggg	.	.
24E\	24ccc\	.	.
24C\	24eee\	.	.
24GG\	24ggg\	.	.
24C\	24eee\	.	.
24E\JJ	24ccc\JJ	.	.
!LO:LB:g=original	!LO:LB:g=original	!	!
=109	=109	=109	=109
24C\LL 24c	24ccc^^\LL 24cccc	.	.
24G\	24ggg\	.	.
24E\	24eee\	.	.
24C\	24ccc\	.	.
24E\	24gg\	.	.
24G\JJ	24ee\JJ	.	.
*	*X8va	*	*
24C^^\LL 24c	24cc^^\LL 24ccc	.	.
24G\	24gg\	.	.
24E\	24ee\	.	.
24C\	24cc\	.	.
24GG\	24g\	.	.
24EE\JJ	24e\JJ	.	.
24CC^^\LL 24C	24c^^\LL 24cc	.	.
24GG\	24g\	.	.
24EE\	24e\	.	.
24CC\	24c</	.	.
24GGG\	24G</	.	.
24EEE\JJ	24E</JJ	.	.
=110	=110	=110	=110
4CCC\ 4CC	4C/ 4c	.	.
*	*8va	*	*
4CC\ 4EE 4GG 4C	4ee\ 4gg 4ccc 4eee	.	.
8.C\L 8.E 8.G 8.c	8.eee\L 8.ggg 8.cccc 8.eeee	.	.
*	*X8va	*	*
16CCC\Jk 16CC	16E</Jk 16G< 16c< 16e<	.	.
=111	=111	=111	=111
4CCC\ 4CC	4E</ 4G< 4c< 4e	.	.
!	!LO:TX:b:t=pesante.	!	!
8CCC\L 8CC	8C</L 8c<	.	.
8CCC\ 8CC	8C</ 8c<	.	.
8CCC\ 8CC	8C</ 8c<	.	.
8CCC\J 8CC	8C</J 8c<	.	.
=112	=112	=112	=112
2.CCC;<\ 2.CC	2.C<;/ 2.c<	.	.
==	==	==	==
*-	*-	*-	*-
!!!RDF**kern: > = above
!!!RDF**kern: < = below
!!!system-decoration: [(s1,s2)]
!!!ENC: Solarz Mateusz
!!!END: 2022-07-27
!!!ENC: Julita Ruszuk
!!!END: 2022-09-12
